X:1
T:Fairy Dance Reel
T:Fairy Dance Reel
T:Nathaniel Gow 1802
C:Nathaniel Gow 1802
L:1/8
M:2/2
K:D
V:1 treble 
V:1
 d"A"e |:"D" f2 fd f2 fd |"D" f2 fd"A7" cAeA |"D" f2 fd"G" gfed |"A7" cABc"D" defg :|"B" x8 |: %6
"D" a2 af"Bm" b2 ba |"Em" g2 ge"A7" a2 ag |"D" f2 fd"G" gfed |"A7" cABc"D" defg :|"C" x8 |: %11
"D" fafd fafd |"D" fafd"A7" cdeg |"D" fdfa"G" gfed |"A7" cABc"D" defg :|"D" x8 |] %16
"D" afdf"Bm" gaba |"Em" gfed"A7" ceag |"D" fedc"G" Bged |"A7" cABc"D" defg || x8 | %21
"D" agfe"B7" ^dfba |"Em" gfed"A7" ceag |1"D" fedc"G" Bged |"A7" cABc"D" defg!D.C.! |] %25
"D""^end" [DAf]2 z2"G" [G,DBg]2 z2 |"A7" [A,Ec]2 z2"D" [A,Fd]4 |] %27

